assets/img/shopping-cart.svg

<!-- Generated by IcoMoon.io -->
<svg version="1.1" xmlns="http://www.w3.org/2000/svg" width="24" height="24" viewBox="0 0 24 24">
<title>shopping-cart</title>
<path d="M11 21c0-0.552-0.225-1.053-0.586-1.414s-0.862-0.586-1.414-0.586-1.053 0.225-1.414 0.586-0.586 0.862-0.586 1.414 0.225 1.053 0.586 1.414 0.862 0.586 1.414 0.586 1.053-0.225 1.414-0.586 0.586-0.862 0.586-1.414zM22 21c0-0.552-0.225-1.053-0.586-1.414s-0.862-0.586-1.414-0.586-1.053 0.225-1.414 0.586-0.586 0.862-0.586 1.414 0.225 1.053 0.586 1.414 0.862 0.586 1.414 0.586 1.053-0.225 1.414-0.586 0.586-0.862 0.586-1.414zM7.221 7h14.57l-1.371 7.191c-0.046 0.228-0.166 0.425-0.332 0.568-0.18 0.156-0.413 0.246-0.688 0.241h-9.734c-0.232 0.003-0.451-0.071-0.626-0.203-0.19-0.143-0.329-0.351-0.379-0.603zM1 2h3.18l0.848 4.239c0.108 0.437 0.502 0.761 0.972 0.761h1.221l-0.4-2h-0.821c-0.552 0-1 0.448-1 1 0 0.053 0.004 0.105 0.012 0.155 0.004 0.028 0.010 0.057 0.017 0.084l1.671 8.347c0.149 0.751 0.57 1.383 1.14 1.811 0.521 0.392 1.17 0.613 1.854 0.603h9.706c0.748 0.015 1.455-0.261 1.995-0.727 0.494-0.426 0.848-1.013 0.985-1.683l1.602-8.402c0.103-0.543-0.252-1.066-0.795-1.17-0.065-0.013-0.13-0.019-0.187-0.018h-16.18l-0.84-4.196c-0.094-0.462-0.497-0.804-0.98-0.804h-4c-0.552 0-1 0.448-1 1s0.448 1 1 1z"></path>
</svg>

<svg xmlns="http://www.w3.org/2000/svg" width="24" height="24"><path d="M11 21c0-.552-.225-1.053-.586-1.414a1.996 1.996 0 00-2.828 0 1.996 1.996 0 000 2.828 1.996 1.996 0 002.828 0c.361-.361.586-.862.586-1.414zm11 0c0-.552-.225-1.053-.586-1.414a1.996 1.996 0 00-2.828 0 1.996 1.996 0 000 2.828 1.996 1.996 0 002.828 0c.361-.361.586-.862.586-1.414zM7.221 7h14.57l-1.371 7.191A1 1 0 0119.4 15H9.666a1.016 1.016 0 01-.626-.203.99.99 0 01-.379-.603zM1 2h3.18l.848 4.239C5.136 6.676 5.53 7 6 7h1.221l-.4-2H6a1 1 0 00-.971 1.239L6.7 14.586A3.009 3.009 0 009.694 17H19.4a2.97 2.97 0 001.995-.727 3.02 3.02 0 00.985-1.683l1.602-8.402A1 1 0 0023 5H6.82L5.98.804A1 1 0 005 0H1a1 1 0 000 2z"/></svg>
